src/images/icons/instagram.svg

<svg xmlns="http://www.w3.org/2000/svg"  width="32pt" height="32pt" viewBox="0 0 32 32" version="1.1">
<defs>
<radialGradient id="radial0" gradientUnits="userSpaceOnUse" cx="104.957123" cy="447.447433" fx="104.957123" fy="447.447433" r="564.64589" gradientTransform="matrix(0.0625,0,0,0.0625,0.000011875,0)">
<stop offset="0" style="stop-color:rgb(98.039216%,88.235294%,0%);stop-opacity:1;"/>
<stop offset="0.0544" style="stop-color:rgb(98.039216%,86.27451%,1.568627%);stop-opacity:1;"/>
<stop offset="0.1167" style="stop-color:rgb(98.431373%,80.784314%,5.490196%);stop-opacity:1;"/>
<stop offset="0.1829" style="stop-color:rgb(98.823529%,71.764706%,12.54902%);stop-opacity:1;"/>
<stop offset="0.2514" style="stop-color:rgb(99.607843%,59.607843%,21.960784%);stop-opacity:1;"/>
<stop offset="0.3054" style="stop-color:rgb(100%,47.45098%,31.372549%);stop-opacity:1;"/>
<stop offset="0.4922" style="stop-color:rgb(100%,10.980392%,45.490196%);stop-opacity:1;"/>
<stop offset="1" style="stop-color:rgb(42.352941%,10.980392%,81.960784%);stop-opacity:1;"/>
</radialGradient>
<linearGradient id="linear0" gradientUnits="userSpaceOnUse" x1="196.372654" y1="222.459678" x2="-671.015954" y2="-265.446414" gradientTransform="matrix(0.0625,0,0,0.0625,0.000011875,0)">
<stop offset="0" style="stop-color:rgb(63.137255%,70.980392%,84.705882%);stop-opacity:0;"/>
<stop offset="0.3094" style="stop-color:rgb(56.470588%,63.529412%,74.117647%);stop-opacity:0.309804;"/>
<stop offset="0.7554" style="stop-color:rgb(48.627451%,54.509804%,61.176471%);stop-opacity:0.756863;"/>
<stop offset="1" style="stop-color:rgb(45.490196%,50.980392%,56.470588%);stop-opacity:1;"/>
</linearGradient>
<linearGradient id="linear1" gradientUnits="userSpaceOnUse" x1="256.0003" y1="451.966086" x2="256.0003" y2="531.77397" gradientTransform="matrix(0.0625,0,0,0.0625,0.000011875,0)">
<stop offset="0" style="stop-color:rgb(98.039216%,88.235294%,0%);stop-opacity:0;"/>
<stop offset="0.3068" style="stop-color:rgb(98.823529%,65.882353%,0%);stop-opacity:0.305882;"/>
<stop offset="0.6275" style="stop-color:rgb(99.607843%,45.098039%,0%);stop-opacity:0.627451;"/>
<stop offset="0.8685" style="stop-color:rgb(100%,32.156863%,0%);stop-opacity:0.866667;"/>
<stop offset="1" style="stop-color:rgb(100%,27.058824%,0%);stop-opacity:1;"/>
</linearGradient>
<linearGradient id="linear2" gradientUnits="userSpaceOnUse" x1="226.872407" y1="226.147987" x2="100.160685" y2="99.436165" gradientTransform="matrix(0.0625,0,0,0.0625,0.000011875,0)">
<stop offset="0" style="stop-color:rgb(51.372549%,22.745098%,70.588235%);stop-opacity:0;"/>
<stop offset="1" style="stop-color:rgb(51.372549%,22.745098%,70.588235%);stop-opacity:1;"/>
</linearGradient>
<linearGradient id="linear3" gradientUnits="userSpaceOnUse" x1="350.899541" y1="468.287448" x2="287.655567" y2="170.137573" gradientTransform="matrix(0.0625,0,0,0.0625,0.000011875,0)">
<stop offset="0" style="stop-color:rgb(51.372549%,22.745098%,70.588235%);stop-opacity:0;"/>
<stop offset="1" style="stop-color:rgb(51.372549%,22.745098%,70.588235%);stop-opacity:1;"/>
</linearGradient>
<linearGradient id="linear4" gradientUnits="userSpaceOnUse" x1="374.965057" y1="374.964967" x2="120.941067" y2="120.940877" gradientTransform="matrix(0.0625,0,0,0.0625,0.000011875,0)">
<stop offset="0" style="stop-color:rgb(51.372549%,22.745098%,70.588235%);stop-opacity:0;"/>
<stop offset="1" style="stop-color:rgb(51.372549%,22.745098%,70.588235%);stop-opacity:1;"/>
</linearGradient>
<linearGradient id="linear5" gradientUnits="userSpaceOnUse" x1="393.806665" y1="221.263104" x2="309.805801" y2="137.26234" gradientTransform="matrix(0.0625,0,0,0.0625,0.000011875,0)">
<stop offset="0" style="stop-color:rgb(51.372549%,22.745098%,70.588235%);stop-opacity:0;"/>
<stop offset="1" style="stop-color:rgb(51.372549%,22.745098%,70.588235%);stop-opacity:1;"/>
</linearGradient>
<linearGradient id="linear6" gradientUnits="userSpaceOnUse" x1="357.658245" y1="155.049529" x2="150.542611" y2="362.165163" gradientTransform="matrix(0.0625,0,0,0.0625,0.000011875,0)">
<stop offset="0" style="stop-color:rgb(51.372549%,22.745098%,70.588235%);stop-opacity:1;"/>
<stop offset="0.0922" style="stop-color:rgb(61.176471%,20.392157%,58.431373%);stop-opacity:1;"/>
<stop offset="0.2927" style="stop-color:rgb(86.27451%,14.509804%,27.45098%);stop-opacity:1;"/>
<stop offset="0.392" style="stop-color:rgb(99.215686%,11.372549%,11.372549%);stop-opacity:1;"/>
<stop offset="0.5589" style="stop-color:rgb(98.823529%,40.784314%,19.215686%);stop-opacity:1;"/>
<stop offset="0.6887" style="stop-color:rgb(98.823529%,60.784314%,25.098039%);stop-opacity:1;"/>
<stop offset="0.7521" style="stop-color:rgb(98.823529%,68.627451%,27.058824%);stop-opacity:1;"/>
<stop offset="0.7806" style="stop-color:rgb(99.215686%,71.764706%,31.372549%);stop-opacity:1;"/>
<stop offset="0.8656" style="stop-color:rgb(99.607843%,79.607843%,41.568627%);stop-opacity:1;"/>
<stop offset="0.9415" style="stop-color:rgb(100%,84.705882%,47.843137%);stop-opacity:1;"/>
<stop offset="1" style="stop-color:rgb(100%,86.27451%,50.196078%);stop-opacity:1;"/>
</linearGradient>
</defs>
<g id="surface1">
<path style=" stroke:none;fill-rule:nonzero;fill:url(#radial0);" d="M 31.453125 5.722656 C 31.160156 2.996094 29.003906 0.839844 26.277344 0.546875 C 19.433594 -0.183594 12.566406 -0.183594 5.722656 0.546875 C 2.996094 0.839844 0.839844 2.996094 0.546875 5.722656 C -0.183594 12.566406 -0.183594 19.433594 0.546875 26.277344 C 0.839844 29.003906 2.996094 31.160156 5.722656 31.453125 C 12.566406 32.183594 19.433594 32.183594 26.277344 31.453125 C 29.003906 31.160156 31.160156 29.003906 31.453125 26.277344 C 32.183594 19.433594 32.183594 12.566406 31.453125 5.722656 Z M 31.453125 5.722656 "/>
<path style=" stroke:none;fill-rule:nonzero;fill:url(#linear0);" d="M 29.710938 6.882812 C 29.453125 4.460938 27.539062 2.546875 25.117188 2.289062 C 19.046875 1.640625 12.953125 1.640625 6.882812 2.289062 C 4.460938 2.546875 2.546875 4.460938 2.289062 6.882812 C 1.640625 12.953125 1.640625 19.046875 2.289062 25.117188 C 2.546875 27.539062 4.460938 29.453125 6.882812 29.710938 C 12.953125 30.359375 19.046875 30.359375 25.117188 29.710938 C 27.539062 29.453125 29.453125 27.539062 29.710938 25.117188 C 30.359375 19.046875 30.359375 12.953125 29.710938 6.882812 Z M 29.710938 6.882812 "/>
<path style=" stroke:none;fill-rule:nonzero;fill:url(#linear1);" d="M 0.480469 25.613281 C 0.5 25.832031 0.523438 26.054688 0.546875 26.277344 C 0.839844 29.003906 2.996094 31.160156 5.722656 31.453125 C 12.566406 32.183594 19.433594 32.183594 26.277344 31.453125 C 29.003906 31.160156 31.160156 29.003906 31.453125 26.277344 C 31.476562 26.054688 31.5 25.832031 31.519531 25.613281 Z M 0.480469 25.613281 "/>
<path style=" stroke:none;fill-rule:nonzero;fill:url(#linear2);" d="M 31.453125 26.277344 C 31.84375 22.597656 32.027344 18.914062 31.996094 15.230469 L 24.683594 7.917969 C 23.769531 6.875 22.433594 6.222656 20.863281 6.167969 C 17.640625 6.050781 14.40625 6.058594 11.179688 6.167969 C 8.5 6.261719 6.625 8.0625 6.144531 10.707031 C 6.0625 11.175781 6.011719 11.648438 5.941406 12.117188 L 5.941406 19.878906 C 5.980469 20.128906 6.035156 20.378906 6.050781 20.632812 C 6.160156 22.242188 6.820312 23.621094 7.878906 24.554688 L 15.324219 31.996094 C 18.976562 32.023438 22.628906 31.839844 26.277344 31.453125 C 29.003906 31.160156 31.160156 29.003906 31.453125 26.277344 Z M 31.453125 26.277344 "/>
<path style=" stroke:none;fill-rule:nonzero;fill:url(#linear3);" d="M 31.453125 26.277344 C 31.160156 29.003906 29.003906 31.160156 26.277344 31.453125 C 22.628906 31.839844 18.976562 32.023438 15.324219 31.996094 L 7.890625 24.566406 C 8.753906 25.320312 9.875 25.777344 11.179688 25.828125 C 14.402344 25.949219 17.640625 25.945312 20.863281 25.828125 C 23.78125 25.722656 25.894531 23.566406 25.984375 20.648438 C 26.082031 17.550781 26.082031 14.445312 25.984375 11.347656 C 25.941406 10.003906 25.46875 8.820312 24.6875 7.921875 L 31.996094 15.234375 C 32.027344 18.914062 31.84375 22.597656 31.453125 26.277344 Z M 31.453125 26.277344 "/>
<path style=" stroke:none;fill-rule:nonzero;fill:url(#linear4);" d="M 19.777344 12.535156 C 18.839844 11.515625 17.496094 10.875 16 10.875 C 13.167969 10.875 10.875 13.167969 10.875 16 C 10.875 17.496094 11.515625 18.839844 12.535156 19.777344 L 24.394531 31.632812 C 25.019531 31.578125 25.648438 31.519531 26.277344 31.453125 C 29.003906 31.160156 31.160156 29.003906 31.453125 26.277344 C 31.519531 25.648438 31.578125 25.019531 31.632812 24.394531 Z M 19.777344 12.535156 "/>
<path style=" stroke:none;fill-rule:nonzero;fill:url(#linear5);" d="M 31.9375 19.445312 L 22.394531 9.902344 C 22.171875 9.609375 21.820312 9.421875 21.425781 9.421875 C 20.75 9.421875 20.207031 9.96875 20.207031 10.640625 C 20.207031 11.035156 20.394531 11.386719 20.6875 11.609375 L 31.765625 22.691406 C 31.84375 21.609375 31.898438 20.527344 31.9375 19.445312 Z M 31.9375 19.445312 "/>
<path style=" stroke:none;fill-rule:nonzero;fill:url(#linear6);" d="M 5.941406 12.117188 C 6.011719 11.648438 6.0625 11.175781 6.144531 10.707031 C 6.625 8.0625 8.5 6.261719 11.179688 6.167969 C 14.40625 6.058594 17.640625 6.050781 20.863281 6.167969 C 23.78125 6.273438 25.894531 8.429688 25.984375 11.347656 C 26.082031 14.445312 26.082031 17.550781 25.984375 20.648438 C 25.894531 23.566406 23.78125 25.722656 20.867188 25.828125 C 17.640625 25.945312 14.402344 25.949219 11.179688 25.828125 C 8.261719 25.71875 6.246094 23.554688 6.050781 20.632812 C 6.035156 20.378906 5.980469 20.128906 5.941406 19.878906 C 5.941406 17.292969 5.941406 14.703125 5.941406 12.117188 Z M 16.003906 24.101562 C 17.480469 24.101562 18.957031 24.144531 20.429688 24.089844 C 22.742188 24.003906 24.164062 22.625 24.21875 20.316406 C 24.285156 17.4375 24.285156 14.558594 24.21875 11.679688 C 24.164062 9.371094 22.742188 7.960938 20.429688 7.910156 C 17.496094 7.847656 14.5625 7.847656 11.628906 7.910156 C 9.335938 7.960938 7.910156 9.34375 7.847656 11.625 C 7.769531 14.539062 7.769531 17.457031 7.847656 20.371094 C 7.910156 22.652344 9.335938 24.003906 11.628906 24.089844 C 13.085938 24.144531 14.546875 24.101562 16.003906 24.101562 Z M 16.003906 24.101562 "/>
<path style=" stroke:none;fill-rule:nonzero;fill:rgb(100%,100%,100%);fill-opacity:1;" d="M 5.941406 12.117188 C 6.011719 11.648438 6.0625 11.175781 6.144531 10.707031 C 6.625 8.0625 8.5 6.261719 11.179688 6.167969 C 14.40625 6.058594 17.640625 6.050781 20.863281 6.167969 C 23.78125 6.273438 25.894531 8.429688 25.984375 11.347656 C 26.082031 14.445312 26.082031 17.550781 25.984375 20.648438 C 25.894531 23.566406 23.78125 25.722656 20.867188 25.828125 C 17.640625 25.945312 14.402344 25.949219 11.179688 25.828125 C 8.261719 25.71875 6.246094 23.554688 6.050781 20.632812 C 6.035156 20.378906 5.980469 20.128906 5.941406 19.878906 C 5.941406 17.292969 5.941406 14.703125 5.941406 12.117188 Z M 16.003906 24.101562 C 17.480469 24.101562 18.957031 24.144531 20.429688 24.089844 C 22.742188 24.003906 24.164062 22.625 24.21875 20.316406 C 24.285156 17.4375 24.285156 14.558594 24.21875 11.679688 C 24.164062 9.371094 22.742188 7.960938 20.429688 7.910156 C 17.496094 7.847656 14.5625 7.847656 11.628906 7.910156 C 9.335938 7.960938 7.910156 9.34375 7.847656 11.625 C 7.769531 14.539062 7.769531 17.457031 7.847656 20.371094 C 7.910156 22.652344 9.335938 24.003906 11.628906 24.089844 C 13.085938 24.144531 14.546875 24.101562 16.003906 24.101562 Z M 16.003906 24.101562 "/>
<path style=" stroke:none;fill-rule:nonzero;fill:rgb(100%,100%,100%);fill-opacity:1;" d="M 16 10.875 C 13.167969 10.875 10.875 13.167969 10.875 16 C 10.875 18.832031 13.167969 21.125 16 21.125 C 18.832031 21.125 21.125 18.832031 21.125 16 C 21.125 13.167969 18.832031 10.875 16 10.875 Z M 16 19.359375 C 14.144531 19.359375 12.640625 17.855469 12.640625 16 C 12.640625 14.144531 14.144531 12.640625 16 12.640625 C 17.855469 12.640625 19.359375 14.144531 19.359375 16 C 19.359375 17.855469 17.855469 19.359375 16 19.359375 Z M 16 19.359375 "/>
<path style=" stroke:none;fill-rule:nonzero;fill:rgb(100%,100%,100%);fill-opacity:1;" d="M 22.644531 10.640625 C 22.644531 11.3125 22.097656 11.859375 21.425781 11.859375 C 20.75 11.859375 20.207031 11.3125 20.207031 10.640625 C 20.207031 9.96875 20.75 9.421875 21.425781 9.421875 C 22.097656 9.421875 22.644531 9.96875 22.644531 10.640625 Z M 22.644531 10.640625 "/>
</g>
</svg>

<!-- Generated by IcoMoon.io -->
<svg version="1.1" xmlns="http://www.w3.org/2000/svg" width="32" height="32" viewBox="0 0 32 32">
<title>instagram</title>
<path fill="#000" d="M31.452 5.724c-0.291-2.729-2.447-4.885-5.176-5.176-6.844-0.73-13.709-0.73-20.552 0-2.729 0.291-4.885 2.447-5.176 5.176-0.73 6.844-0.73 13.708 0 20.552 0.291 2.729 2.447 4.885 5.176 5.176 6.844 0.73 13.709 0.73 20.553 0 2.729-0.291 4.885-2.447 5.176-5.176 0.73-6.844 0.73-13.708 0-20.552z"></path>
<path fill="#000" d="M29.712 6.881c-0.258-2.422-2.171-4.334-4.593-4.593-6.073-0.648-12.165-0.648-18.238 0-2.422 0.259-4.334 2.171-4.593 4.593-0.648 6.073-0.648 12.165 0 18.238 0.259 2.422 2.171 4.335 4.593 4.593 6.073 0.648 12.165 0.648 18.238 0 2.422-0.258 4.335-2.171 4.593-4.593 0.648-6.073 0.648-12.164 0-18.238z"></path>
<path fill="#000" d="M0.479 25.613c0.022 0.221 0.045 0.442 0.068 0.664 0.291 2.729 2.447 4.885 5.176 5.176 6.844 0.73 13.709 0.73 20.552 0 2.729-0.291 4.885-2.447 5.176-5.176 0.024-0.221 0.046-0.442 0.069-0.664z"></path>
<path fill="#000" d="M31.452 26.276c0.393-3.678 0.574-7.361 0.544-11.044l-7.314-7.314c-0.914-1.043-2.249-1.694-3.817-1.751-3.225-0.116-6.461-0.11-9.687 0-2.679 0.092-4.553 1.893-5.033 4.54-0.085 0.467-0.136 0.941-0.202 1.411v7.759c0.037 0.251 0.091 0.502 0.108 0.755 0.107 1.61 0.769 2.989 1.828 3.922l7.443 7.443c3.653 0.026 7.306-0.156 10.954-0.545 2.729-0.291 4.885-2.447 5.176-5.176z"></path>
<path fill="#000" d="M31.452 26.276c-0.291 2.729-2.447 4.885-5.176 5.176-3.647 0.389-7.301 0.571-10.953 0.545l-7.432-7.432c0.862 0.754 1.985 1.213 3.288 1.262 3.225 0.121 6.461 0.118 9.687 0.002 2.917-0.105 5.028-2.264 5.119-5.181 0.097-3.097 0.097-6.202 0-9.3-0.041-1.346-0.514-2.53-1.297-3.426l7.31 7.31c0.029 3.682-0.152 7.366-0.545 11.044z"></path>
<path fill="#000" d="M19.776 12.535c-0.937-1.020-2.282-1.66-3.776-1.66-2.831 0-5.125 2.295-5.125 5.125 0 1.494 0.64 2.839 1.66 3.776l11.859 11.859c0.628-0.055 1.255-0.115 1.883-0.182 2.729-0.291 4.885-2.447 5.176-5.176 0.067-0.627 0.128-1.255 0.182-1.883z"></path>
<path fill="#000" d="M31.938 19.447l-9.544-9.544c-0.223-0.292-0.573-0.482-0.969-0.482-0.673 0-1.219 0.546-1.219 1.219 0 0.396 0.19 0.747 0.482 0.969l11.080 11.080c0.075-1.081 0.132-2.162 0.171-3.243z"></path>
<path fill="#000" d="M5.943 12.119c0.067-0.471 0.117-0.944 0.202-1.411 0.48-2.647 2.354-4.447 5.033-4.54 3.226-0.111 6.461-0.117 9.687-0 2.916 0.105 5.028 2.264 5.119 5.181 0.097 3.097 0.097 6.202 0 9.3-0.091 2.917-2.202 5.076-5.119 5.181-3.225 0.116-6.462 0.119-9.687-0.002-2.916-0.11-4.933-2.274-5.128-5.195-0.017-0.253-0.071-0.503-0.108-0.755 0-2.586 0-5.173 0-7.759zM16.003 24.101c1.476 0 2.954 0.044 4.428-0.010 2.311-0.086 3.733-1.465 3.787-3.774 0.067-2.877 0.067-5.758 0-8.636-0.054-2.309-1.477-3.72-3.787-3.769-2.932-0.062-5.868-0.062-8.8 0-2.293 0.048-3.719 1.431-3.781 3.714-0.079 2.914-0.079 5.832 0 8.746 0.062 2.283 1.488 3.634 3.781 3.719 1.456 0.054 2.915 0.010 4.372 0.010z"></path>
<path fill="#fff" d="M5.943 12.119c0.067-0.471 0.117-0.944 0.202-1.411 0.48-2.647 2.354-4.447 5.033-4.54 3.226-0.111 6.461-0.117 9.687-0 2.916 0.105 5.028 2.264 5.119 5.181 0.097 3.097 0.097 6.202 0 9.3-0.091 2.917-2.202 5.076-5.119 5.181-3.225 0.116-6.462 0.119-9.687-0.002-2.916-0.11-4.933-2.274-5.128-5.195-0.017-0.253-0.071-0.503-0.108-0.755 0-2.586 0-5.173 0-7.759zM16.003 24.101c1.476 0 2.954 0.044 4.428-0.010 2.311-0.086 3.733-1.465 3.787-3.774 0.067-2.877 0.067-5.758 0-8.636-0.054-2.309-1.477-3.72-3.787-3.769-2.932-0.062-5.868-0.062-8.8 0-2.293 0.048-3.719 1.431-3.781 3.714-0.079 2.914-0.079 5.832 0 8.746 0.062 2.283 1.488 3.634 3.781 3.719 1.456 0.054 2.915 0.010 4.372 0.010z"></path>
<path fill="#fff" d="M16 10.875c-2.831 0-5.125 2.295-5.125 5.125s2.295 5.125 5.125 5.125c2.831 0 5.125-2.295 5.125-5.125s-2.295-5.125-5.125-5.125zM16 19.361c-1.856 0-3.361-1.505-3.361-3.361s1.505-3.361 3.361-3.361 3.361 1.505 3.361 3.361-1.505 3.361-3.361 3.361z"></path>
<path fill="#fff" d="M22.644 10.641c0 0.673-0.546 1.219-1.219 1.219s-1.219-0.546-1.219-1.219c0-0.674 0.546-1.219 1.219-1.219s1.219 0.546 1.219 1.219z"></path>
</svg>
